X: 543
U:~=!turn!
M:C|
L:1/8
K:C lydian
c | BGGA GAGc | BGGB {/f}gdec | BGGA GAGB | A=FFA {AB}c3 :| A | (B{/^c}d)(de) {/c}ded=c | (B{/^c}d)(de) {/f}gde=c |


